src/images/pages/set_currency/eur_icon.svg

<?xml version="1.0" encoding="UTF-8"?>
<svg width="20px" height="20px" viewBox="0 0 20 20" version="1.1" xmlns="http://www.w3.org/2000/svg" xmlns:xlink="http://www.w3.org/1999/xlink">
    <!-- Generator: Sketch 47 (45396) - http://www.bohemiancoding.com/sketch -->
    <title>EUR</title>
    <desc>Created with Sketch.</desc>
    <defs></defs>
    <g id="Landing-Page" stroke="none" stroke-width="1" fill="none" fill-rule="evenodd">
        <g transform="translate(-480.000000, -478.000000)" id="Real-account" fill-rule="nonzero">
            <g transform="translate(330.000000, 432.000000)">
                <g id="Currency" transform="translate(90.000000, 46.000000)">
                    <g id="EUR" transform="translate(60.000000, 0.000000)">
                        <path d="M13.4220004,0.60255938 C8.2456411,-1.27826266 2.48227195,1.38957002 0.601172301,6.57850459 C-1.27992735,11.7674392 1.40164024,17.5166186 6.57799957,19.3974406 C11.7543589,21.2782627 17.517728,18.61043 19.3988277,13.4214954 C21.2799274,8.23256085 18.5983598,2.48338142 13.4220004,0.60255938 Z" id="Shape" fill="#043CAE"></path>
                        <path d="M13,14.8165767 C12.5138491,14.9388762 12.027898,15 11.5420124,15 C10.4967985,15 9.6786444,14.6763546 9.08227329,14.0298718 C8.4852159,13.382645 8.17307995,12.4639749 8.14771805,11.269484 L8.14594125,11.1858003 L7,11.1858003 L7,10.5139322 L8.14773839,10.5139322 L8.14773839,9.41127954 L7,9.41127954 L7,8.73261257 L8.14469899,8.73261257 L8.14767932,8.65027771 C8.18993678,7.48287079 8.51040975,6.58434595 9.10747659,5.9503629 C9.70394532,5.31701492 10.5116164,5 11.5355645,5 C11.9659659,5 12.4541616,5.06378624 12.9999506,5.19158933 L12.8918945,6.11448371 C12.4462382,5.97355062 11.9983549,5.90303165 11.5484604,5.90303165 C10.8211973,5.90303165 10.2559567,6.14261449 9.85916017,6.62246752 C9.4651513,7.09894945 9.25622168,7.77384171 9.22987566,8.64428242 L9.22720213,8.73261257 L11.6994063,8.73261257 L11.6994063,9.41127954 L9.22338638,9.41127954 L9.22338638,10.5139322 L11.6994063,10.5139322 L11.6994063,11.1858003 L9.22170405,11.1858003 L9.22340346,11.2731554 C9.2409553,12.1753808 9.44861493,12.8741973 9.8490392,13.3667864 C10.2521876,13.8627267 10.8230137,14.1105662 11.5549084,14.1105662 C12.026689,14.1105662 12.4725172,14.042668 12.8921453,13.9067747 L13,14.8165767 Z" stroke="#FFFFFF" stroke-width="0.5" fill="#FFFFFF"></path>
                    </g>
                </g>
            </g>
        </g>
    </g>
</svg>

<svg width="20" height="20" viewBox="0 0 20 20" xmlns="http://www.w3.org/2000/svg"><title>EUR</title><g fill-rule="nonzero" fill="none"><path d="M13.422.603C8.246-1.278 2.482 1.39.602 6.579c-1.882 5.188.8 10.938 5.976 12.818 5.176 1.881 10.94-.787 12.82-5.976 1.882-5.188-.8-10.938-5.976-12.818z" fill="#043CAE"/><path d="M13 14.817a5.956 5.956 0 0 1-1.458.183c-1.045 0-1.863-.324-2.46-.97-.597-.647-.909-1.566-.934-2.76l-.002-.084H7v-.672h1.148V9.41H7v-.678h1.145l.003-.083c.042-1.167.362-2.066.96-2.7.596-.633 1.404-.95 2.428-.95.43 0 .918.064 1.464.192l-.108.922a4.433 4.433 0 0 0-1.344-.211c-.727 0-1.292.24-1.689.72-.394.476-.603 1.15-.63 2.021l-.002.089H11.7v.678H9.223v1.103H11.7v.672H9.222l.001.087c.018.902.226 1.601.626 2.094.403.496.974.744 1.706.744.472 0 .918-.068 1.337-.204l.108.91z" stroke="#FFF" stroke-width=".5" fill="#FFF"/></g></svg>
